22x22/apps/goxel.svg

<svg xmlns="http://www.w3.org/2000/svg" width="22" height="22" version="1">
 <path style="opacity:0.2" transform="matrix(0.5,0,0,0.49796464,5.4074325,7.7371657)" d="m 21.185135,4.5441666 9.999999,5.7735024 0,11.547005 -9.999999,5.773502 -10,-5.773503 10e-7,-11.547004 z"/>
 <path style="opacity:0.2" transform="matrix(0.5,0,0,0.49796464,-4.5925674,7.7371657)" d="m 21.185135,4.5441666 9.999999,5.7735024 0,11.547005 -9.999999,5.773502 -10,-5.773503 10e-7,-11.547004 z"/>
 <path style="fill:#6e7e87" transform="matrix(0.5,0,0,0.49796464,5.4074325,7.2371657)" d="m 21.185135,4.5441666 9.999999,5.7735024 0,11.547005 -9.999999,5.773502 -10,-5.773503 10e-7,-11.547004 z"/>
 <path style="opacity:0.25" d="m 16,9.5000007 5,2.8750003 V 18.125 L 16,21 Z"/>
 <path style="fill:#83929a" d="M 16,9.4999997 11,12.375 l 5,2.875 5,-2.875 z"/>
 <path style="fill:#2f5d7c" transform="matrix(0.5,0,0,0.49796464,-4.5925674,7.2371657)" d="m 21.185135,4.5441666 9.999999,5.7735024 0,11.547005 -9.999999,5.773502 -10,-5.773503 10e-7,-11.547004 z"/>
 <path style="opacity:0.2" d="m 6,9.5000007 5,2.8750003 V 18.125 L 6,21 Z"/>
 <path style="fill:#366a90" d="M 6,9.4999997 1.0000001,12.375 6,15.25 11,12.375 Z"/>
 <path style="opacity:0.2" transform="matrix(0.5,0,0,0.49796464,0.4074325,-0.76283454)" d="m 21.185135,4.5441666 9.999999,5.7735024 0,11.547005 -9.999999,5.773502 -10,-5.773503 10e-7,-11.547004 z"/>
 <path style="fill:#447ede" transform="matrix(0.5,0,0,0.49796464,0.4074325,-1.2628345)" d="m 21.185135,4.5441666 9.999999,5.7735024 0,11.547005 -9.999999,5.773502 -10,-5.773503 10e-7,-11.547004 z"/>
 <path style="opacity:0.2" d="M 11,0.99999976 15.999999,3.8749998 V 9.6249997 L 11,12.5 Z"/>
 <path style="fill:#649cff" d="m 11,0.99999966 -5,2.87500004 5,2.875 5,-2.875 z"/>
 <path style="opacity:0.1" d="M 11.434571,12.625 11,12.875 16,15.75 21,12.875 20.565429,12.625 16,15.25 Z"/>
 <path style="opacity:0.1" d="M 1.4345703,12.625 1,12.875 6,15.75 11,12.875 10.56543,12.625 6,15.25 Z"/>
 <path style="opacity:0.1" d="M 6.4345705,4.1249997 6,4.3749997 l 5,2.875 5,-2.875 -0.434571,-0.25 L 11,6.7499997 Z"/>
 <path style="opacity:0.2;fill:#f4f4f7" d="m 11,0.99999966 -5,2.87500004 0.4345705,0.25 4.5654295,-2.625 4.565429,2.625 0.434571,-0.25 z"/>
 <path style="opacity:0.1;fill:#f4f4f7" d="m 16,9.4999997 v 0.5 L 20.565429,12.625 21,12.375 Z"/>
 <path style="opacity:0.1;fill:#f4f4f7" d="M 6,9.4999997 1,12.375 1.4345703,12.625 6,9.9999997 Z"/>
</svg>

<svg xmlns="http://www.w3.org/2000/svg" width="22" height="22" version="1"><path style="opacity:.2" transform="matrix(.5 0 0 .49796 5.407 7.737)" d="m21.185 4.544 10 5.774v11.547l-10 5.773-10-5.773V10.318z"/><path style="opacity:.2" transform="matrix(.5 0 0 .49796 -4.593 7.737)" d="m21.185 4.544 10 5.774v11.547l-10 5.773-10-5.773V10.318z"/><path style="fill:#6e7e87" transform="matrix(.5 0 0 .49796 5.407 7.237)" d="m21.185 4.544 10 5.774v11.547l-10 5.773-10-5.773V10.318z"/><path style="opacity:.25" d="m16 9.5 5 2.875v5.75L16 21z"/><path style="fill:#83929a" d="m16 9.5-5 2.875 5 2.875 5-2.875z"/><path style="fill:#2f5d7c" transform="matrix(.5 0 0 .49796 -4.593 7.237)" d="m21.185 4.544 10 5.774v11.547l-10 5.773-10-5.773V10.318z"/><path style="opacity:.2" d="m6 9.5 5 2.875v5.75L6 21z"/><path style="fill:#366a90" d="m6 9.5-5 2.875 5 2.875 5-2.875z"/><path style="opacity:.2" transform="matrix(.5 0 0 .49796 .407 -.763)" d="m21.185 4.544 10 5.774v11.547l-10 5.773-10-5.773V10.318z"/><path style="fill:#447ede" transform="matrix(.5 0 0 .49796 .407 -1.263)" d="m21.185 4.544 10 5.774v11.547l-10 5.773-10-5.773V10.318z"/><path style="opacity:.2" d="m11 1 5 2.875v5.75L11 12.5z"/><path style="fill:#649cff" d="M11 1 6 3.875l5 2.875 5-2.875z"/><path style="opacity:.1" d="m11.435 12.625-.435.25 5 2.875 5-2.875-.435-.25L16 15.25zM1.435 12.625l-.435.25 5 2.875 5-2.875-.435-.25L6 15.25zM6.435 4.125 6 4.375l5 2.875 5-2.875-.435-.25L11 6.75z"/><path style="opacity:.2;fill:#f4f4f7" d="M11 1 6 3.875l.435.25L11 1.5l4.565 2.625.435-.25z"/><path style="opacity:.1;fill:#f4f4f7" d="M16 9.5v.5l4.565 2.625.435-.25zM6 9.5l-5 2.875.435.25L6 10z"/></svg>
